packages/foundations/assets/icons/functional/images/human/shower_14.svg

<svg width="14" height="14" viewBox="0 0 14 14" fill="none" xmlns="http://www.w3.org/2000/svg">
<g clip-path="url(#clip0_185_1172)">
<path fill-rule="evenodd" clip-rule="evenodd" d="M5.95052 9.79988C6.8784 9.79988 7.63763 10.522 7.69688 11.4349L7.7006 11.55V11.9C7.7006 12.2866 7.38717 12.6001 7.00052 12.6001C6.64149 12.6001 6.30505 12.3367 6.30043 11.9C6.2992 11.7833 6.2992 11.6666 6.30043 11.55C6.30043 11.3782 6.17334 11.2005 5.95052 11.2001C5.01759 11.1982 4.08426 11.1982 3.15052 11.2001C2.97874 11.2001 2.80368 11.3246 2.8006 11.55C2.79901 11.6666 2.79901 11.7833 2.8006 11.9C2.8006 12.2866 2.48716 12.6001 2.10052 12.6001C1.74149 12.6001 1.405 12.3191 1.40043 11.9C1.39916 11.7833 1.39916 11.6666 1.40043 11.55C1.40043 10.6221 2.13766 9.8 3.15052 9.79988C4.08375 9.79868 5.01709 9.79868 5.95052 9.79988ZM4.56565 4.725C5.62852 4.725 6.47552 5.57196 6.47548 6.63483C6.48233 7.69735 5.62815 8.56509 4.56565 8.57496C3.49722 8.56757 2.63291 7.70326 2.62552 6.63483C2.63544 5.57235 3.50315 4.71819 4.56565 4.725ZM9.8573 7.00337C10.1397 6.93813 10.4216 7.11434 10.4869 7.39685C10.5522 7.67923 10.3762 7.96114 10.0937 8.02626C9.81129 8.09138 9.52944 7.91529 9.46413 7.63279C9.39882 7.35028 9.57485 7.06849 9.8573 7.00337ZM11.8113 6.72108C12.0618 6.57547 12.3832 6.66061 12.5292 6.91123C12.675 7.16185 12.5902 7.48312 12.3398 7.62885C12.0892 7.77446 11.7679 7.68932 11.622 7.4387C11.476 7.18796 11.5607 6.86668 11.8113 6.72108ZM7.42171 6.9096C7.56731 6.65918 7.88857 6.57435 8.13918 6.72029C8.38992 6.86623 8.47505 7.18758 8.32933 7.438C8.18361 7.68854 7.86235 7.77337 7.61174 7.62743C7.36112 7.48149 7.27599 7.16014 7.42171 6.9096ZM9.85733 5.38725C10.1398 5.32213 10.4217 5.49834 10.4869 5.78073C10.5523 6.06323 10.3762 6.34502 10.0938 6.41014C9.81131 6.47538 9.52944 6.29918 9.46413 6.01667C9.39881 5.73428 9.57486 5.45249 9.85733 5.38725ZM7.94663 5.33582C8.09224 5.08528 8.41363 5.00045 8.66425 5.14639C8.91487 5.29232 9.00001 5.61367 8.8544 5.8642C8.70868 6.11473 8.38741 6.19944 8.13678 6.05351C7.88616 5.90769 7.80102 5.58623 7.94663 5.33582ZM11.2863 5.14616C11.5368 5.00043 11.8581 5.08557 12.0041 5.3362C12.15 5.58682 12.0652 5.90809 11.8148 6.05382C11.5642 6.19943 11.2429 6.11441 11.0969 5.86367C10.951 5.61304 11.0358 5.29177 11.2863 5.14616ZM9.97552 1.39996C10.3345 1.39996 10.6754 1.69998 10.6754 2.09996V3.02676L10.9651 3.06234L11.652 3.15736C12.0345 3.21342 12.2992 3.56896 12.2431 3.95147C12.1871 4.33398 11.8315 4.59863 11.449 4.54256L10.5629 4.4236C10.3648 4.39117 10.1683 4.37496 9.97323 4.37496C9.77818 4.37496 9.58314 4.39117 9.38811 4.4236L8.50203 4.54256C8.11951 4.59863 7.76398 4.33398 7.70792 3.95147C7.65185 3.56896 7.9165 3.21342 8.29901 3.15736L8.98592 3.06234L9.27542 3.02816L9.27552 2.09996C9.27552 1.71336 9.58892 1.39996 9.97552 1.39996Z" fill="#1A1C1F"/>
</g>
<defs>
<clipPath id="clip0_185_1172">
<rect width="14" height="14" fill="white"/>
</clipPath>
</defs>
</svg>

<svg xmlns="http://www.w3.org/2000/svg" width="14" height="14" fill="none"><g clip-path="url(#a)"><path fill="#1A1C1F" fill-rule="evenodd" d="M5.95 9.8a1.75 1.75 0 0 1 1.747 1.635l.004.115v.35a.7.7 0 0 1-.7.7.69.69 0 0 1-.7-.7v-.35a.344.344 0 0 0-.35-.35 688 688 0 0 0-2.8 0 .344.344 0 0 0-.35.35q-.003.175 0 .35a.7.7 0 0 1-1.4 0v-.35c0-.928.737-1.75 1.75-1.75zM4.567 4.725a1.9 1.9 0 0 1 1.91 1.91 1.93 1.93 0 0 1-1.91 1.94 1.954 1.954 0 0 1-1.94-1.94 1.93 1.93 0 0 1 1.94-1.91m5.291 2.278a.525.525 0 1 1 .236 1.024.525.525 0 0 1-.236-1.024m1.954-.282a.525.525 0 1 1 .528.91.525.525 0 0 1-.528-.91m-4.39.189a.524.524 0 1 1 .907.527.524.524 0 0 1-.906-.527m2.436-1.523a.525.525 0 1 1 .236 1.024.525.525 0 0 1-.236-1.024m-1.91-.051a.525.525 0 1 1 .907.527.525.525 0 0 1-.907-.527m3.34-.19a.525.525 0 1 1 .527.908.525.525 0 0 1-.528-.908M9.975 1.4c.358 0 .7.3.7.7v.927l.29.035.686.095a.7.7 0 1 1-.203 1.386l-.886-.12a3.6 3.6 0 0 0-1.175 0l-.886.12a.7.7 0 1 1-.203-1.386l.687-.095.29-.034V2.1a.7.7 0 0 1 .7-.7" clip-rule="evenodd"/></g><defs><clipPath id="a"><path fill="#fff" d="M0 0h14v14H0z"/></clipPath></defs></svg>
